icons/svg/icons8/truck.svg

<svg width="26" height="26" viewBox="0 0 26 26" fill="none" xmlns="http://www.w3.org/2000/svg">
<g clip-path="url(#clip0)">
<path d="M6.50001 25.813C7.77745 25.813 8.81301 24.7774 8.81301 23.5C8.81301 22.2226 7.77745 21.187 6.50001 21.187C5.22258 21.187 4.18701 22.2226 4.18701 23.5C4.18701 24.7774 5.22258 25.813 6.50001 25.813Z" fill="#333333"/>
<path d="M20.5 25.813C21.7774 25.813 22.813 24.7774 22.813 23.5C22.813 22.2226 21.7774 21.187 20.5 21.187C19.2226 21.187 18.187 22.2226 18.187 23.5C18.187 24.7774 19.2226 25.813 20.5 25.813Z" fill="#333333"/>
<path d="M25.234 14.98L23 12C22.543 11.449 22.234 11 21.5 11H17C16.449 11 16 11.449 16 12V22C16 22.549 16.446 22.995 16.994 22.999C17.24 21.276 18.711 19.943 20.5 19.943C22.29 19.943 23.761 21.277 24.006 23H25C25.551 23 26 22.551 26 22C26 22 26 17.947 26 17C26 16.053 25.234 14.98 25.234 14.98ZM19 17V13H21.446C21.607 13 21.831 13.236 21.831 13.236L23.936 16.15C24.123 16.424 24.325 16.75 24.325 17H19V17Z" fill="#333333"/>
<path d="M14 7H1C0.449 7 0 7.449 0 8V22C0 22.551 0.449 23 1 23H2.994C3.239 21.277 4.71 19.943 6.5 19.943C8.29 19.943 9.761 21.277 10.006 23H14C14.551 23 15 22.551 15 22V8C15 7.449 14.551 7 14 7Z" fill="#333333"/>
</g>
<defs>
<clipPath id="clip0">
<rect width="26" height="26" fill="white"/>
</clipPath>
</defs>
</svg>

<?xml version="1.0" encoding="utf-8"?>
<!-- Generator: Adobe Illustrator 15.0.0, SVG Export Plug-In . SVG Version: 6.00 Build 0)  -->
<!DOCTYPE svg PUBLIC "-//W3C//DTD SVG 1.1//EN" "http://www.w3.org/Graphics/SVG/1.1/DTD/svg11.dtd">
<svg version="1.1" id="Layer_1" xmlns="http://www.w3.org/2000/svg" xmlns:xlink="http://www.w3.org/1999/xlink" x="0px" y="0px"
	 width="26px" height="26px" viewBox="0 0 26 26" enable-background="new 0 0 26 26" xml:space="preserve">
<rect x="902" y="1469" fill="#333333" width="26" height="2"/>
<rect x="902" y="1489" fill="#333333" width="26" height="2"/>
<rect x="906" y="1474" fill="#333333" width="18" height="2"/>
<rect x="902" y="1479" fill="#333333" width="26" height="2"/>
<rect x="906" y="1484" fill="#333333" width="18" height="2"/>
<rect x="902" y="1467" fill="none" width="26" height="26"/>
<rect fill="none" width="26" height="26"/>
<g>
	<circle fill="#333333" cx="6.5" cy="23.5" r="2.313"/>
</g>
<g>
	<circle fill="#333333" cx="20.5" cy="23.5" r="2.313"/>
</g>
<path fill="#333333" d="M25.234,14.98L23,12c-0.457-0.551-0.766-1-1.5-1H17c-0.551,0-1,0.449-1,1v10
	c0,0.549,0.446,0.995,0.994,0.999c0.246-1.723,1.717-3.056,3.506-3.056c1.79,0,3.261,1.334,3.506,3.057H25c0.551,0,1-0.449,1-1
	c0,0,0-4.053,0-5S25.234,14.98,25.234,14.98z M19,17v-4h2.446c0.161,0,0.385,0.236,0.385,0.236l2.105,2.914
	c0.187,0.274,0.389,0.6,0.389,0.85H19z"/>
<path fill="#333333" d="M14,7H1C0.449,7,0,7.449,0,8v14c0,0.551,0.449,1,1,1h1.994c0.245-1.723,1.716-3.057,3.506-3.057
	S9.761,21.277,10.006,23H14c0.551,0,1-0.449,1-1V8C15,7.449,14.551,7,14,7z"/>
</svg>
